X:1
T:茉莉花
M:4/4
L:1/8
V:1
K:C
|e2egac'c'a|g2gag4|e2egac'c'a|g2gag4|
w: 好 一 朵 美 丽 的|茉 莉 花|好 一 朵 美 丽 的|茉 莉 花|
|g2g2g2eg|a2a2g4|e2deg2ed|c2cdc4|
w: 芬 芳 美 丽|满 枝 芽|又 香 又 白|人 人 夸|
|edced3e|g2ac'g4|d2egdecA|G4A2Ac|
w: 让 我 来 将|你 摘 下|送 给 别 人|家 茉 莉|
|d3ecdcA|G4A2Ac|d3ecdcA|g4[g'bd']4|
w: 花 茉 莉|花 茉 莉|花 茉 莉|花